!!!OTL: Kua si Yuan
!!!ARE: Asia, China,ÿJiangsu Changzhou
!! III, 429
!!!SCT: C1781
!!!YEM: Copyright 1995, estate of Helmut Schaffrath.
**kern
*ICvox
*Ivox
*M2/4
*k[b-]
*F:
{16dd
16ff
16dd
16a
4cc
=1
16dd
16ff
16dd
16a
4cc
=2
8a
16a
16cc
16a
16g
8f
=3
16cc
16dd
16cc
16a
4g}
=4
{8a
16a
16cc
8dd
8cc
=5
16a
16a
16a
16f
4g
=6
16dd
16dd
16dd
16a
4cc}
=7
{16a
8a
16cc
8dd
8cc
=8
8f
8a
4g}
=9
{8f
16f
16d
16cc
16dd
16cc
16a
=10
4g
8cc
16cc
16a
=11
8g
8c
4d}
=12
{8e
16e
16g
16e
16d
8c
=13
2d}
==
!!!AGN: Xiaodiao, Daoshilang
!!!AMT: simple duple
!!!AIN: vox
!!!EED: Helmut Schaffrath
!!!EEV: 1.0
*-
